src/16/actions/insert-math-expression.svg

<svg xmlns="http://www.w3.org/2000/svg" viewBox="0 0 16 16">
  <defs id="defs3051">
    <style type="text/css" id="current-color-scheme">
      .ColorScheme-Text {
        color:#5d656b;
      }
      </style>
  </defs>
 <path style="fill:currentColor;fill-opacity:1;stroke:none" 
     d="M 7 2 C 5.895 2 5 2.895 5 4 L 5 7 L 3 7 L 3 8 L 5 8 L 5 14 L 6 14 L 6 8 L 8 8 L 8 7 L 6 7 L 6 4 C 6 3.448 6.448 3 7 3 L 9 3 L 9 2 L 8 2 L 7 2 z M 9.4707031 9.7597656 L 8.7636719 10.466797 L 10.177734 11.880859 L 8.7636719 13.294922 L 9.4707031 14.001953 L 10.884766 12.587891 L 12.298828 14.001953 L 13.005859 13.294922 L 11.591797 11.880859 L 13.005859 10.466797 L 12.298828 9.7597656 L 10.884766 11.173828 L 9.4707031 9.7597656 z "
     class="ColorScheme-Text"
     />
</svg>

<svg xmlns="http://www.w3.org/2000/svg" viewBox="0 0 16 16"><path d="M7 2a2 2 0 0 0-2 2v3H3v1h2v6h1V8h2V7H6V4a1 1 0 0 1 1-1h2V2H7zm2.47 7.76l-.706.707 1.414 1.414-1.414 1.414.707.707 1.414-1.414 1.414 1.414.707-.707-1.414-1.414 1.414-1.414-.707-.707-1.414 1.414L9.47 9.76z" fill="currentColor" color="#5d656b"/></svg>
